src/icons/sunny.svg

<svg width="25" height="25" viewBox="0 0 25 25" fill="none" xmlns="http://www.w3.org/2000/svg">
<path d="M13.9531 1.35156C13.9531 0.760742 13.459 0.266602 12.8789 0.266602C12.2881 0.266602 11.7939 0.760742 11.7939 1.35156V3.54297C11.7939 4.12305 12.2881 4.61719 12.8789 4.61719C13.459 4.61719 13.9531 4.12305 13.9531 3.54297V1.35156ZM18.25 5.3584C17.8418 5.7666 17.8418 6.4541 18.2607 6.87305C18.6689 7.28125 19.3672 7.29199 19.7861 6.8623L21.333 5.31543C21.752 4.89648 21.7412 4.19824 21.333 3.7793C20.9248 3.37109 20.2266 3.38184 19.8184 3.79004L18.25 5.3584ZM5.96094 6.8623C6.36914 7.28125 7.06738 7.28125 7.47559 6.87305C7.89453 6.47559 7.89453 5.75586 7.49707 5.3584L5.93945 3.79004C5.54199 3.39258 4.83301 3.37109 4.4248 3.7793C4.0166 4.19824 4.00586 4.89648 4.41406 5.30469L5.96094 6.8623ZM12.8682 6.59375C9.78516 6.59375 7.22852 9.15039 7.22852 12.2441C7.22852 15.3379 9.78516 17.8945 12.8682 17.8945C15.9512 17.8945 18.5078 15.3379 18.5078 12.2441C18.5078 9.15039 15.9512 6.59375 12.8682 6.59375ZM23.75 13.3184C24.3301 13.3184 24.8242 12.8242 24.8242 12.2441C24.8242 11.6533 24.3301 11.1699 23.75 11.1699H21.5693C20.9893 11.1699 20.4951 11.6533 20.4951 12.2441C20.4951 12.8242 20.9893 13.3184 21.5693 13.3184H23.75ZM1.99707 11.1699C1.41699 11.1699 0.922852 11.6533 0.922852 12.2441C0.922852 12.8242 1.41699 13.3184 1.99707 13.3184H4.17773C4.76855 13.3184 5.2627 12.8242 5.2627 12.2441C5.2627 11.6533 4.76855 11.1699 4.17773 11.1699H1.99707ZM19.7754 17.626C19.3672 17.2178 18.6689 17.2178 18.25 17.626C17.8418 18.0449 17.8418 18.7324 18.2607 19.1514L19.8184 20.709C20.2373 21.1172 20.9248 21.1064 21.3438 20.6875C21.752 20.2793 21.752 19.5918 21.333 19.1729L19.7754 17.626ZM4.41406 19.1621C3.99512 19.5811 3.99512 20.2793 4.39258 20.6875C4.81152 21.0957 5.50977 21.1064 5.91797 20.6982L7.47559 19.1514C7.89453 18.7324 7.89453 18.0449 7.49707 17.6367C7.07812 17.2178 6.37988 17.2178 5.96094 17.626L4.41406 19.1621ZM13.9531 20.9453C13.9531 20.3652 13.459 19.8711 12.8789 19.8711C12.2881 19.8711 11.7939 20.3652 11.7939 20.9453V23.1367C11.7939 23.7168 12.2881 24.2217 12.8789 24.2217C13.459 24.2217 13.9531 23.7168 13.9531 23.1367V20.9453Z" fill="#F8D74A"/>
</svg>

<svg xmlns="http://www.w3.org/2000/svg" width="25" height="25" fill="none"><path fill="#F8D74A" d="M13.953 1.352c0-.591-.494-1.085-1.074-1.085-.59 0-1.085.494-1.085 1.085v2.191c0 .58.494 1.074 1.085 1.074.58 0 1.074-.494 1.074-1.074V1.352Zm4.297 4.006a1.08 1.08 0 0 0 .01 1.515 1.083 1.083 0 0 0 1.526-.01l1.547-1.548c.419-.419.408-1.117 0-1.536-.408-.408-1.106-.397-1.515.011L18.25 5.358ZM5.96 6.862a1.08 1.08 0 0 0 1.516.011c.419-.397.419-1.117.021-1.515L5.94 3.79c-.397-.397-1.106-.419-1.514-.01-.408.418-.42 1.116-.01 1.525L5.96 6.862Zm6.908-.268c-3.083 0-5.64 2.556-5.64 5.65 0 3.094 2.557 5.65 5.64 5.65 3.083 0 5.64-2.556 5.64-5.65 0-3.094-2.557-5.65-5.64-5.65Zm10.882 6.724c.58 0 1.074-.494 1.074-1.074 0-.59-.494-1.074-1.074-1.074h-2.18c-.58 0-1.075.483-1.075 1.074 0 .58.494 1.074 1.074 1.074h2.181ZM1.997 11.17c-.58 0-1.074.483-1.074 1.074 0 .58.494 1.074 1.074 1.074h2.18c.592 0 1.086-.494 1.086-1.074 0-.59-.494-1.074-1.085-1.074h-2.18Zm17.778 6.456c-.408-.408-1.106-.408-1.525 0a1.093 1.093 0 0 0 .01 1.525l1.558 1.558a1.093 1.093 0 0 0 1.526-.021 1.08 1.08 0 0 0-.011-1.515l-1.558-1.547Zm-15.36 1.536c-.42.42-.42 1.117-.022 1.526.419.408 1.117.418 1.525.01l1.558-1.547a1.09 1.09 0 0 0 .021-1.514 1.106 1.106 0 0 0-1.536-.011l-1.547 1.536Zm9.538 1.783c0-.58-.494-1.074-1.074-1.074-.59 0-1.085.494-1.085 1.074v2.192c0 .58.494 1.085 1.085 1.085.58 0 1.074-.505 1.074-1.085v-2.192Z"/></svg>
